X:153
T:Mardike. (p)1657.PLFD1.153
M:6/4
L:1/4
Q:3/4=80
S:Playford, Dancing Master,Supplement to 3rd Ed.,1657
O:England;London
H:1657.
Z:Chris Partington.
K:F
c|f2ga>ba|g2fe>dc|f2ga>ba|g3f2:|
|:a|a>^gad2g|^f3g3|f2ed>ef|e2d^c2d|
d>^cdd>cd|d>^cdd>=cd/e/|f3c3|
B>cBA>BA|G>AGF2c|f3g3|abc'g2f|f3-f2:|
